X:60
T:Cronin's #2
R:reel
D:Slide: Harmonic motion
M:C|
K:Amix
BAeA BAeA|BAeA dBGA|B~e3 dged|BAGA BedB|
BAeA BAeA|BAeA dBGA|B~e3 dged|BAGA BedB|
A3A BAeA|BAeA dBGA|B~e3 dged|BAGA BedB|
BAeA BAeA|BAeA dBGA|B~e3 dged|BAGA BedB||
A2ce ~a3f|gfed e~a3|G2Bd ~g3e|dBGA BedB|
A2ce ~a3f|gfed eaag|~f3d efed|BAGA BedB :||
